StripePaymentsUI/StripePaymentsUI/Resources/StripePaymentsUI.xcassets/Cards/stp_card_cartes_bancaires.imageset/icon-card-cartebancaire.svg

<svg fill="none" height="17" viewBox="0 0 26 17" width="26" xmlns="http://www.w3.org/2000/svg" xmlns:xlink="http://www.w3.org/1999/xlink"><linearGradient id="a" gradientUnits="userSpaceOnUse" x1="20.2969" x2="12.1893" y1=".653876" y2="20.0414"><stop offset="0" stop-color="#002253"/><stop offset=".242548" stop-color="#0082b1"/><stop offset="1" stop-color="#0e9641"/></linearGradient><mask id="b" height="16" maskUnits="userSpaceOnUse" width="24" x="0" y="1"><path d="m22 1h-20c-1.10457 0-2 .89543-2 2v12c0 1.1046.89543 2 2 2h20c1.1046 0 2-.8954 2-2v-12c0-1.10457-.8954-2-2-2z" fill="#fff"/></mask><g clip-rule="evenodd" fill-rule="evenodd" mask="url(#b)"><path d="m0 1h24v16h-24z" fill="url(#a)"/><path d="m13.0602 4.50602v4.206h6.7134c1.1615 0 2.103-.94154 2.103-2.103 0-1.16145-.9415-2.103-2.103-2.103zm-.5727 4.206c-.0382-.8273-.2446-1.56922-.5925-2.19918-.3871-.70101-.9495-1.26337-1.6505-1.65049-.70098-.38712-1.54061-.59898-2.48226-.59898h-.88973c-.94165 0-1.78129.21186-2.48229.59898s-1.26336.94948-1.65048 1.65049c-.38712.701-.59899 1.54063-.59899 2.48228s.21187 1.78128.59899 2.48228.94948 1.2634 1.65048 1.6505 1.54064.599 2.48229.599h.88973c.94165 0 1.78128-.2119 2.48226-.599.701-.3871 1.2634-.9495 1.6505-1.6505.3479-.63.5543-1.3719.5925-2.19918h-5.00836v-.5662zm.5727.5662v4.20598h6.7134c1.1615 0 2.103-.9415 2.103-2.103 0-1.1614-.9415-2.10298-2.103-2.10298z" fill="#fff"/></g></svg>

<svg width="26" height="17" viewBox="0 0 26 17" fill="none" xmlns="http://www.w3.org/2000/svg">
<mask id="mask0_8137_52456" style="mask-type:luminance" maskUnits="userSpaceOnUse" x="0" y="1" width="24" height="16">
<path d="M22 1H2C0.89543 1 0 1.89543 0 3V15C0 16.1046 0.89543 17 2 17H22C23.1046 17 24 16.1046 24 15V3C24 1.89543 23.1046 1 22 1Z" fill="white"/>
</mask>
<g mask="url(#mask0_8137_52456)">
<path fill-rule="evenodd" clip-rule="evenodd" d="M0 1H24V17H0V1Z" fill="url(#paint0_linear_8137_52456)"/>
<path fill-rule="evenodd" clip-rule="evenodd" d="M13.0602 4.50602V8.71202H19.7736C20.9351 8.71202 21.8766 7.77048 21.8766 6.60902C21.8766 5.44757 20.9351 4.50602 19.7736 4.50602H13.0602ZM12.4875 8.71202C12.4493 7.88472 12.2429 7.1428 11.895 6.51284C11.5079 5.81183 10.9455 5.24947 10.2445 4.86235C9.54352 4.47523 8.70389 4.26337 7.76224 4.26337H6.87251C5.93086 4.26337 5.09122 4.47523 4.39022 4.86235C3.68922 5.24947 3.12686 5.81183 2.73974 6.51284C2.35262 7.21384 2.14075 8.05347 2.14075 8.99512C2.14075 9.93677 2.35262 10.7764 2.73974 11.4774C3.12686 12.1784 3.68922 12.7408 4.39022 13.1279C5.09122 13.515 5.93086 13.7269 6.87251 13.7269H7.76224C8.70389 13.7269 9.54352 13.515 10.2445 13.1279C10.9455 12.7408 11.5079 12.1784 11.895 11.4774C12.2429 10.8474 12.4493 10.1055 12.4875 9.27822H7.47914V8.71202H12.4875ZM13.0602 9.27822V13.4842H19.7736C20.9351 13.4842 21.8766 12.5427 21.8766 11.3812C21.8766 10.2198 20.9351 9.27822 19.7736 9.27822H13.0602Z" fill="white"/>
</g>
<defs>
<linearGradient id="paint0_linear_8137_52456" x1="20.2969" y1="0.653876" x2="12.1893" y2="20.0414" gradientUnits="userSpaceOnUse">
<stop stop-color="#002253"/>
<stop offset="0.242548" stop-color="#0082B1"/>
<stop offset="1" stop-color="#0E9641"/>
</linearGradient>
</defs>
</svg>
